view/frontend/web/images/step1.svg

<svg width="37" height="37" viewBox="0 0 37 37" fill="none" xmlns="http://www.w3.org/2000/svg">
<path d="M36.8571 18.0729C36.8571 28.0141 28.7982 36.0729 18.8571 36.0729C8.91593 36.0729 0.857056 28.0141 0.857056 18.0729C0.857056 8.13181 8.91593 0.072937 18.8571 0.072937C28.7982 0.072937 36.8571 8.13181 36.8571 18.0729ZM2.83706 18.0729C2.83706 26.9205 10.0095 34.0929 18.8571 34.0929C27.7047 34.0929 34.8771 26.9205 34.8771 18.0729C34.8771 9.22534 27.7047 2.05294 18.8571 2.05294C10.0095 2.05294 2.83706 9.22534 2.83706 18.0729Z" fill="#C4C4C4"/>
<path d="M19.4142 1.07206C19.4321 0.525595 19.8902 0.0942888 20.4348 0.142194C24.7581 0.52245 28.8116 2.45448 31.8344 5.59947C34.8573 8.74447 36.6274 12.8712 36.8362 17.2062C36.8625 17.7523 36.4134 18.1929 35.8667 18.1892C35.3199 18.1855 34.8829 17.7387 34.8529 17.1928C34.6429 13.3744 33.072 9.74428 30.4069 6.97155C27.7419 4.19883 24.1768 2.48543 20.3697 2.12449C19.8254 2.07288 19.3963 1.61853 19.4142 1.07206Z" fill="#0B1643"/>
</svg>

<svg xmlns="http://www.w3.org/2000/svg" width="37" height="37" fill="none" xmlns:v="https://vecta.io/nano"><g clip-path="url(#A)"><circle cx="19" cy="18" r="17" fill="#fff"/><path d="M36.857 18.073c0 9.941-8.059 18-18 18s-18-8.059-18-18 8.059-18 18-18 18 8.059 18 18zm-34.02 0c0 8.848 7.172 16.02 16.02 16.02s16.02-7.172 16.02-16.02-7.172-16.02-16.02-16.02-16.02 7.172-16.02 16.02z" fill="#c4c4c4"/><path d="M19.414 1.072c.018-.546.476-.978 1.021-.93a18 18 0 0 1 16.401 17.064c.026.546-.423.987-.97.983s-.984-.45-1.014-.996A16.02 16.02 0 0 0 20.37 2.125c-.544-.052-.973-.506-.955-1.052z" fill="#0b1643"/></g><defs><clipPath id="A"><path fill="#fff" d="M0 0h37v37H0z"/></clipPath></defs></svg>
